sequoia/src/pages/Main/Welcome/assets/discord.svg

<svg width="25" height="20" viewBox="0 0 25 20" fill="none" xmlns="http://www.w3.org/2000/svg">
<path d="M21.2559 2.30674C19.7136 1.59911 18.0598 1.07773 16.3306 0.779085C16.2991 0.773319 16.2676 0.787734 16.2514 0.816516C16.0387 1.19484 15.8031 1.68834 15.6381 2.07625C13.7782 1.79779 11.9279 1.79779 10.1062 2.07625C9.94114 1.67973 9.69699 1.19484 9.48332 0.816516C9.46711 0.788679 9.43563 0.774264 9.40416 0.779085C7.67592 1.07673 6.02208 1.59811 4.47883 2.30674C4.46545 2.31251 4.45401 2.3221 4.44641 2.33458C1.30942 7.0212 0.450032 11.5926 0.871599 16.1074C0.873489 16.1294 0.885919 16.1506 0.903074 16.164C2.97277 17.684 4.97766 18.6067 6.94527 19.2184C6.97675 19.2279 7.01012 19.2165 7.03015 19.1905C7.49558 18.5549 7.91048 17.8847 8.26621 17.1799C8.2872 17.1386 8.26716 17.0896 8.22424 17.0733C7.56614 16.8237 6.93951 16.5193 6.3367 16.1737C6.28901 16.1458 6.28518 16.0776 6.32909 16.045C6.45594 15.9499 6.58283 15.851 6.70396 15.7512C6.72589 15.7329 6.75642 15.7291 6.78218 15.7406C10.7423 17.5486 15.0295 17.5486 18.9429 15.7406C18.9686 15.7281 18.9991 15.732 19.022 15.7502C19.1432 15.85 19.27 15.9499 19.3978 16.0449C19.4417 16.0776 19.4388 16.1458 19.3912 16.1736C18.7884 16.526 18.1617 16.8237 17.5027 17.0723C17.4598 17.0886 17.4407 17.1386 17.4617 17.1799C17.8251 17.8837 18.24 18.5539 18.6968 19.1895C18.7159 19.2164 18.7502 19.2279 18.7817 19.2183C20.7589 18.6067 22.7637 17.6839 24.8334 16.164C24.8516 16.1506 24.863 16.1304 24.8649 16.1083C25.3695 10.8888 24.0198 6.35482 21.2873 2.33552C21.2807 2.3221 21.2692 2.31251 21.2559 2.30674ZM8.85768 13.3583C7.66543 13.3583 6.68302 12.2638 6.68302 10.9195C6.68302 9.57526 7.64634 8.48066 8.85768 8.48066C10.0785 8.48066 11.0514 9.58486 11.0323 10.9195C11.0323 12.2638 10.0689 13.3583 8.85768 13.3583ZM16.898 13.3583C15.7058 13.3583 14.7234 12.2638 14.7234 10.9195C14.7234 9.57526 15.6867 8.48066 16.898 8.48066C18.1189 8.48066 19.0917 9.58486 19.0727 10.9195C19.0727 12.2638 18.1189 13.3583 16.898 13.3583Z" fill="white"/>
</svg>

<svg width="25" height="20" fill="none" xmlns="http://www.w3.org/2000/svg"><path d="M21.26 2.3c-1.55-.7-3.2-1.22-4.93-1.52-.03 0-.06 0-.08.04-.21.37-.45.87-.61 1.26a18.42 18.42 0 0 0-5.53 0c-.17-.4-.41-.89-.63-1.26A.08.08 0 0 0 9.4.78a19.9 19.9 0 0 0-4.95 1.55C1.3 7.03.45 11.6.87 16.11c0 .02.02.04.03.05a20.07 20.07 0 0 0 6.05 3.06c.03 0 .06 0 .08-.03.47-.64.88-1.3 1.24-2.01a.08.08 0 0 0-.05-.1c-.65-.26-1.28-.56-1.88-.9a.08.08 0 0 1-.01-.13l.37-.3a.07.07 0 0 1 .08 0c3.96 1.8 8.25 1.8 12.16 0 .03-.02.06-.02.08 0l.38.3c.04.03.04.1 0 .12-.61.36-1.24.65-1.9.9a.08.08 0 0 0-.04.11c.37.7.78 1.37 1.24 2 .02.04.05.05.08.04a20 20 0 0 0 6.05-3.06.08.08 0 0 0 .03-.05 20.29 20.29 0 0 0-3.6-13.8ZM8.86 13.37c-1.2 0-2.18-1.1-2.18-2.44 0-1.34.97-2.44 2.18-2.44 1.22 0 2.2 1.1 2.17 2.44 0 1.34-.96 2.44-2.17 2.44Zm8.04 0c-1.2 0-2.18-1.1-2.18-2.44 0-1.34.97-2.44 2.18-2.44 1.22 0 2.2 1.1 2.17 2.44 0 1.34-.95 2.44-2.17 2.44Z" fill="#fff"/></svg>
